X: 2008
T: Yâ Rabbi Zâtın Sırrıdır
C: Ali Ufkî
O: Turkey
F: http://compmusic.upf.edu/node/140
N: rast--ilahi--evsat--ya_rabbi--ali_ufki
N: makam= rast
N: form= ilahi
N: usul= evsat = 26/8
M: 26/8
L: 1/16
K: C _1/4B ^f  
Q: 1/4=108
%%MIDI tuningsystem comma53
G4 G4 A4 B8 G8 B4 c4 d16  | d4 e4 f4 g8 d8 e4 e4 d16  | \
w:  Yâ  Rab bi  zâ tın  sır rı dır    |  Bu  gül le ri  han dan  e den    | 
g4 g4 f4 e8 d8 c4 c4 B16  | 
w:  Nûr_ i  sı fa tın  sır rı dır    | 
A4 A4 G4 d8 B8 c4 A4 G16  | G4 G4 A4 B8 G8 B4 c4 d16  | \
w:  Bül bül le ri  na lân  e den    |  Yâ  Rab bi  zâ tın  sır rı dır    | 
d4 e4 f4 g8 d8 e4 e4 d16  | 
w:  Bu  gül le ri  han dan  e den    | 
g4 g4 f4 e8 d8 c4 c4 B16  | A4 A4 G4 d8 B8 c4 A4 G16  | \
w:  Nûr_ i  sı fa tın  sır rı dır    |  Bül bül le ri  na lân  e den    | 
G4 G4 A4 B8 G8 B4 c4 d16  | 
w:  Yâ  Rab bi  zâ tın  sır rı dır    | 
d4 e4 f4 g8 d8 e4 e4 d16  | g4 g4 f4 e8 d8 c4 c4 B16  | \
w:  Bu  gül le ri  han dan  e den    |  Nûr_ i  sı fa tın  sır rı dır    | 
A4 A4 G4 d8 B8 c4 A4 G16  | 
w:  Bül bül le ri  na lân  e den    | 
G4 G4 A4 B8 G8 B4 c4 d16  | d4 e4 f4 g8 d8 e4 e4 d16  | \
w:  Yâ  Rab bi  zâ tın  sır rı dır    |  Bu  gül le ri  han dan  e den    | 
g4 g4 f4 e8 d8 c4 c4 B16  | 
w:  Nûr_ i  sı fa tın  sır rı dır    | 
A4 A4 G4 d8 B8 c4 A4 G16  | |


